azure-docs/api_custom_speech.svg

<?xml version="1.0" encoding="UTF-8"?>
<svg width="512px" height="512px" viewBox="0 0 512 512" version="1.1" xmlns="http://www.w3.org/2000/svg" xmlns:xlink="http://www.w3.org/1999/xlink">
    <!-- Generator: Sketch 46.2 (44496) - http://www.bohemiancoding.com/sketch -->
    <title>customSpeech-wht-bluBG-512p</title>
    <desc>Created with Sketch.</desc>
    <defs></defs>
    <g id="PRODUCTION-ICONS" stroke="none" stroke-width="1" fill="none" fill-rule="evenodd">
        <g id="customSpeech-wht-bluBG-512p">
            <g id="Custom-Speech-Service">
                <rect id="Rectangle-3-Copy-9" fill="#0063B1" x="0" y="0" width="512" height="512"></rect>
                <path d="M164.977778,142.222222 L187.733333,142.222222 L187.733333,369.777778 L164.977778,369.777778 L164.977778,142.222222 Z M324.266667,113.777778 L347.022222,113.777778 L347.022222,398.222222 L324.266667,398.222222 L324.266667,113.777778 Z M204.8,176.355556 L227.555556,176.355556 L227.555556,335.644444 L204.8,335.644444 L204.8,176.355556 Z M284.444444,153.6 L307.2,153.6 L307.2,358.4 L284.444444,358.4 L284.444444,153.6 Z M364.088889,176.355556 L386.844444,176.355556 L386.844444,335.644444 L364.088889,335.644444 L364.088889,176.355556 Z M125.155556,199.111111 L147.911111,199.111111 L147.911111,312.888889 L125.155556,312.888889 L125.155556,199.111111 Z M244.622222,216.177778 L267.377778,216.177778 L267.377778,295.822222 L244.622222,295.822222 L244.622222,216.177778 Z M403.911111,221.866667 L426.666667,221.866667 L426.666667,290.133333 L403.911111,290.133333 L403.911111,221.866667 Z M85.3333333,244.622222 L108.088889,244.622222 L108.088889,267.377778 L85.3333333,267.377778 L85.3333333,244.622222 Z" id="Combined-Shape" fill="#FFFFFF" fill-rule="nonzero"></path>
            </g>
        </g>
    </g>
</svg>

<svg width="512" height="512" xmlns="http://www.w3.org/2000/svg"><g fill="none" fill-rule="evenodd"><path fill="#0063B1" d="M0 0h512v512H0z"/><path d="M164.978 142.222h22.755v227.556h-22.755V142.222zm159.289-28.444h22.755v284.444h-22.755V113.778zM204.8 176.356h22.756v159.288H204.8V176.356zm79.644-22.756H307.2v204.8h-22.756V153.6zm79.645 22.756h22.755v159.288H364.09V176.356zM125.156 199.11h22.755V312.89h-22.755V199.11zm119.466 17.067h22.756v79.644h-22.756v-79.644zm159.29 5.689h22.755v68.266H403.91v-68.266zM85.332 244.622h22.756v22.756H85.333v-22.756z" fill="#FFF" fill-rule="nonzero"/></g></svg>
